symbols/web/video_camera_front/materialsymbolssharp/video_camera_front_wght200_20px.svg

<svg xmlns="http://www.w3.org/2000/svg" height="20" width="20"><path d="M5.958 12.792h5.563v-.188q0-.958-1.042-1.26-1.041-.302-1.75-.302-.708 0-1.739.302-1.032.302-1.032 1.26ZM8.729 9.75q.563 0 .906-.354.344-.354.344-.896 0-.562-.344-.906-.343-.344-.906-.344-.541 0-.896.344-.354.344-.354.906 0 .542.354.896.355.354.896.354Zm-5.833 6.083V4.167h11.666v5.125l2.542-2.542v6.5l-2.542-2.542v5.125Zm.916-.916h9.834V5.083H3.812Zm0 0V5.083v9.834Z"/></svg>

<svg xmlns="http://www.w3.org/2000/svg" height="20" width="20"><path d="M5.958 12.792H11.521V12.604Q11.521 11.646 10.479 11.344Q9.438 11.042 8.729 11.042Q8.021 11.042 6.99 11.344Q5.958 11.646 5.958 12.604ZM8.729 9.75Q9.292 9.75 9.635 9.396Q9.979 9.042 9.979 8.5Q9.979 7.938 9.635 7.594Q9.292 7.25 8.729 7.25Q8.188 7.25 7.833 7.594Q7.479 7.938 7.479 8.5Q7.479 9.042 7.833 9.396Q8.188 9.75 8.729 9.75ZM2.896 15.833V4.167H14.562V9.292L17.104 6.75V13.25L14.562 10.708V15.833ZM3.812 14.917H13.646V5.083H3.812ZM3.812 14.917V5.083V14.917Z"/></svg>
